source/images/illustrations/capp-learning/capp-learning-bibliotheek.svg

<svg width="200" height="200" viewBox="0 0 200 200" fill="none" xmlns="http://www.w3.org/2000/svg">
<g clip-path="url(#clip0)">
<path opacity="0.2" d="M123.191 17.166C61.5858 -15.9308 39.6023 8.43904 19.141 65.8088C-1.32022 123.179 18.7912 145.909 50.3546 178.957C81.918 212.005 154.121 199.333 184.078 147.446C214.036 95.559 184.796 50.2627 123.191 17.166Z" fill="#EFB400"/>
<path d="M70.1709 41.3072H22.2939V8.88306C22.2939 7.99876 22.8924 7.40923 23.7901 7.40923H68.6748C69.5725 7.40923 70.1709 7.99876 70.1709 8.88306V41.3072Z" fill="#303C80"/>
<path d="M25.2863 10.3569H67.1787V36.8857H25.2863V10.3569Z" fill="#F6D573"/>
<path d="M70.1709 39.8335H22.2939L14.8131 48.6764V51.6241H77.6517V48.6764L70.1709 39.8335Z" fill="#ABB1BA"/>
<path d="M25.2863 41.3072H67.1786L70.1709 45.7287H22.2939L25.2863 41.3072Z" fill="#303C80"/>
<path d="M28.2784 16.2522H43.24V19.1998H28.2784V16.2522ZM43.24 22.1475H28.2784V25.0951H43.24V22.1475ZM28.2784 30.9905H43.24V28.0428H28.2784V30.9905ZM49.2246 19.1998H64.1862V16.2522H49.2246V19.1998ZM64.1862 22.1475H49.2246V25.0951H64.1862V22.1475ZM49.2246 30.9905H59.6977V28.0428H49.2246V30.9905Z" fill="white"/>
<path d="M168.783 17.8154L132.34 17.8124C128.988 17.8124 125.026 19.4342 124.771 26.9264H124.747C124.747 26.9264 124.747 57.0289 124.747 69.444L124.774 69.362C125.051 74.8878 128.642 75.518 130.224 75.518H165.746C166.032 75.518 166.506 75.518 167.265 75.518C170.302 75.518 170.302 72.481 170.302 72.481V63.3731V19.3339C170.302 18.4942 169.623 17.8154 168.783 17.8154Z" fill="#8093FF"/>
<path d="M165.746 64.8885H130.224C128.202 64.8885 127.784 66.5877 127.784 68.6847C127.784 70.7833 128.202 72.484 130.224 72.484L165.746 72.4809V64.8885Z" fill="white"/>
<path d="M130.224 64.8885C128.452 64.8885 127.913 66.1914 127.805 67.9255H165.746V64.8885H130.224Z" fill="#D5D8DD"/>
<path d="M132.339 26.9233H164.228V34.5158H132.339V26.9233Z" fill="white"/>
<path d="M168.783 64.8885H165.746V75.5179C166.032 75.5179 166.505 75.5179 167.265 75.5179C170.302 75.5179 170.302 72.4809 170.302 72.4809V63.373C170.302 64.2097 169.623 64.8885 168.783 64.8885Z" fill="#4C5FCB"/>
<path fill-rule="evenodd" clip-rule="evenodd" d="M25.0433 131.345C22.8342 131.345 21.0433 133.136 21.0433 135.345V165.932C21.0433 168.141 22.8342 169.932 25.0433 169.932H57.7745C59.9836 169.932 61.7745 168.141 61.7745 165.932V135.345C61.7745 133.136 59.9836 131.345 57.7745 131.345H25.0433ZM28.0105 148.405V143.939H23.5443V148.405H28.0105ZM28.0105 157.338V152.872H23.5443V157.338H28.0105ZM28.0105 166.27V161.804H23.5443V166.27H28.0105ZM28.0105 139.473V135.007H23.5443V139.473H28.0105ZM59.2734 148.405V143.939H54.8073V148.405H59.2734ZM59.2734 157.338V152.872H54.8073V157.338H59.2734ZM59.2734 166.27V161.804H54.8073V166.27H59.2734ZM59.2734 139.473V135.007H54.8073V139.473H59.2734Z" fill="#8093FF"/>
<path d="M48.1081 150.638L36.9427 143.939V157.338L48.1081 150.638Z" fill="white"/>
<path fill-rule="evenodd" clip-rule="evenodd" d="M123.823 124.802L157.551 123.676C159.413 123.614 160.974 125.074 161.036 126.937L161.533 141.83L150.841 141.22C148.636 141.094 146.746 142.779 146.62 144.985L146.015 155.576L131.119 156.073L121.8 165.388L120.562 128.287C120.5 126.424 121.96 124.864 123.823 124.802Z" fill="#F6D573"/>
<path d="M137.722 143.918C137.679 142.648 137.801 141.63 138.087 140.867C138.373 140.103 138.919 139.342 139.723 138.584C140.526 137.828 141.058 137.214 141.318 136.746C141.577 136.278 141.697 135.79 141.68 135.28C141.629 133.746 140.889 133.003 139.463 133.051C138.785 133.073 138.251 133.298 137.858 133.724C137.463 134.152 137.27 134.729 137.276 135.456L133.294 135.588C133.254 133.855 133.774 132.479 134.852 131.461C135.932 130.446 137.432 129.904 139.355 129.84C141.295 129.775 142.815 130.19 143.918 131.085C145.018 131.979 145.598 133.274 145.654 134.971C145.68 135.744 145.531 136.477 145.205 137.173C144.88 137.871 144.297 138.651 143.456 139.515L142.38 140.6C141.706 141.287 141.334 142.075 141.262 142.968L141.235 143.8L137.722 143.917L137.722 143.918ZM137.463 148.099C137.443 147.494 137.635 146.989 138.038 146.58C138.442 146.173 138.967 145.959 139.617 145.937C140.267 145.916 140.806 146.096 141.235 146.473C141.666 146.855 141.891 147.346 141.912 147.951C141.931 148.547 141.743 149.047 141.349 149.447C140.955 149.85 140.424 150.064 139.755 150.086C139.086 150.108 138.544 149.93 138.122 149.555C137.703 149.182 137.483 148.695 137.463 148.099Z" fill="white"/>
<path d="M44.3566 67.4342H105.989V105.955H44.3566V67.4342Z" fill="#303C80"/>
<path opacity="0.3" d="M101.367 73.5975V105.955H48.979V73.5975H101.367ZM105.989 70.5158H44.3566V105.955H105.989V70.5158Z" fill="black"/>
<path d="M102.908 70.5159V105.955H47.4382V70.5159H102.908ZM105.989 67.4342H44.3566V105.955H105.989V67.4342Z" fill="#8093FF"/>
<path d="M109.071 110.577V107.496C109.071 105.801 107.684 104.414 105.989 104.414H44.3564C42.6615 104.414 41.2748 105.801 41.2748 107.496V110.577H109.071Z" fill="#6178FF"/>
<path d="M81.6443 97.3262L67.4688 86.2323L57.6075 93.3201L55.7585 90.8548L67.4688 82.5343L81.028 93.0119L93.9708 77.2955L96.4361 79.1445L81.6443 97.3262ZM67.4688 104.414H56.683V101.332H67.4688L69.0096 102.873L67.4688 104.414Z" fill="white"/>
<path d="M152.224 143.542L180.108 145.121C181.648 145.208 182.825 146.527 182.738 148.067L181.002 178.74L173.47 170.854L150.75 169.567C149.211 169.48 148.032 168.16 148.12 166.621L149.277 146.173C149.365 144.633 150.684 143.455 152.224 143.542Z" fill="#6178FF"/>
<path d="M167.505 162.469L162.751 162.2L161.769 164.841L158.063 164.631L164.154 150.54L167.416 150.724L171.919 165.415L168.193 165.204L167.505 162.469ZM163.733 159.568L166.826 159.743L165.557 154.664L163.733 159.568Z" fill="white"/>
</g>
<defs>
<clipPath id="clip0">
<rect width="200" height="200" fill="white"/>
</clipPath>
</defs>
</svg>

<svg xmlns="http://www.w3.org/2000/svg" xmlns:xlink="http://www.w3.org/1999/xlink" width="185.07" height="194.97" viewBox="0 0 185.07 194.97"><defs><clipPath id="a" transform="translate(-10.86 -2.22)"><rect width="200" height="200" fill="none"/></clipPath></defs><g clip-path="url(#a)"><path d="M123.19,17.17c-61.6-33.1-83.59-8.73-104,48.64S18.79,145.91,50.35,179s103.77,20.37,133.73-31.51S184.8,50.26,123.19,17.17Z" transform="translate(-10.86 -2.22)" fill="#efb400" opacity="0.2" style="isolation:isolate"/><path d="M70.17,41.31H22.29V8.88a1.4,1.4,0,0,1,1.5-1.47H68.67a1.4,1.4,0,0,1,1.5,1.47Z" transform="translate(-10.86 -2.22)" fill="#303c80"/><path d="M25.29,10.36H67.18V36.89H25.29Z" transform="translate(-10.86 -2.22)" fill="#f6d573"/><path d="M70.17,39.83H22.29l-7.48,8.85v2.94H77.65V48.68Z" transform="translate(-10.86 -2.22)" fill="#abb1ba"/><path d="M25.29,41.31H67.18l3,4.42H22.29Z" transform="translate(-10.86 -2.22)" fill="#303c80"/><path d="M28.28,16.25h15V19.2h-15Zm15,5.9h-15v3h15ZM28.28,31h15V28h-15ZM49.22,19.2h15V16.25h-15Zm15,2.95h-15v3h15ZM49.22,31H59.7V28H49.22Z" transform="translate(-10.86 -2.22)" fill="#fff"/><path d="M168.78,17.82H132.34c-3.35,0-7.31,1.62-7.57,9.12h0V69.44l0-.08c.28,5.53,3.87,6.16,5.45,6.16h37a3,3,0,0,0,3-3V19.33A1.51,1.51,0,0,0,168.78,17.82Z" transform="translate(-10.86 -2.22)" fill="#8093ff"/><path d="M165.75,64.89H130.22c-2,0-2.44,1.7-2.44,3.79s.42,3.8,2.44,3.8h35.53Z" transform="translate(-10.86 -2.22)" fill="#fff"/><path d="M130.22,64.89c-1.77,0-2.31,1.3-2.41,3h37.94v-3Z" transform="translate(-10.86 -2.22)" fill="#d5d8dd"/><path d="M132.34,26.92h31.89v7.6H132.34Z" transform="translate(-10.86 -2.22)" fill="#fff"/><path d="M168.78,64.89h-3V75.52h1.51a3,3,0,0,0,3-3V63.37A1.52,1.52,0,0,1,168.78,64.89Z" transform="translate(-10.86 -2.22)" fill="#4c5fcb"/><path d="M25,131.35a4,4,0,0,0-4,4v30.58a4,4,0,0,0,4,4H57.77a4,4,0,0,0,4-4V135.35a4,4,0,0,0-4-4Zm3,17.05v-4.46H23.54v4.46Zm0,8.94v-4.47H23.54v4.47Zm0,8.93V161.8H23.54v4.47Zm0-26.8V135H23.54v4.46Zm31.26,8.93v-4.46H54.81v4.46Zm0,8.94v-4.47H54.81v4.47Zm0,8.93V161.8H54.81v4.47Zm0-26.8V135H54.81v4.46Z" transform="translate(-10.86 -2.22)" fill="#8093ff" fill-rule="evenodd"/><path d="M48.11,150.64l-11.17-6.7v13.4Z" transform="translate(-10.86 -2.22)" fill="#fff"/><path d="M123.82,124.8l33.73-1.12a3.38,3.38,0,0,1,3.49,3.26l.49,14.89-10.69-.61a4,4,0,0,0-4.22,3.77L146,155.58l-14.89.49-9.32,9.32-1.24-37.1A3.38,3.38,0,0,1,123.82,124.8Z" transform="translate(-10.86 -2.22)" fill="#f6d573" fill-rule="evenodd"/><path d="M137.72,143.92a8.06,8.06,0,0,1,.37-3,6.18,6.18,0,0,1,1.63-2.29,8.59,8.59,0,0,0,1.6-1.83,2.76,2.76,0,0,0,.36-1.47c-.05-1.53-.79-2.28-2.22-2.23a2.19,2.19,0,0,0-1.6.67,2.4,2.4,0,0,0-.58,1.74l-4,.13a5.22,5.22,0,0,1,1.56-4.13,7.89,7.89,0,0,1,9.07-.37,4.9,4.9,0,0,1,1.73,3.88,4.74,4.74,0,0,1-.44,2.2,9.05,9.05,0,0,1-1.75,2.34l-1.08,1.09a3.74,3.74,0,0,0-1.12,2.37l0,.83-3.52.12Zm-.26,4.18a2,2,0,0,1,.58-1.52,2.21,2.21,0,0,1,1.58-.64,2.28,2.28,0,0,1,1.62.53,2.11,2.11,0,0,1,.11,3,2.28,2.28,0,0,1-1.59.64,2.25,2.25,0,0,1-1.64-.54A1.93,1.93,0,0,1,137.46,148.1Z" transform="translate(-10.86 -2.22)" fill="#fff"/><path d="M44.36,67.43H106V106H44.36Z" transform="translate(-10.86 -2.22)" fill="#303c80"/><path d="M101.37,73.6V106H49V73.6ZM106,70.52H44.36V106H106Z" transform="translate(-10.86 -2.22)" opacity="0.3" style="isolation:isolate"/><path d="M102.91,70.52V106H47.44V70.52ZM106,67.43H44.36V106H106Z" transform="translate(-10.86 -2.22)" fill="#8093ff"/><path d="M109.07,110.58V107.5a3.1,3.1,0,0,0-3.08-3.09H44.36a3.1,3.1,0,0,0-3.09,3.09v3.08Z" transform="translate(-10.86 -2.22)" fill="#6178ff"/><path d="M81.64,97.33,67.47,86.23l-9.86,7.09-1.85-2.47,11.71-8.32L81,93,94,77.3l2.47,1.84Zm-14.17,7.08H56.68v-3.08H67.47L69,102.87Z" transform="translate(-10.86 -2.22)" fill="#fff"/><path d="M152.22,143.54l27.89,1.58a2.8,2.8,0,0,1,2.63,2.95L181,178.74l-7.53-7.89-22.72-1.28a2.8,2.8,0,0,1-2.63-2.95l1.16-20.45A2.79,2.79,0,0,1,152.22,143.54Z" transform="translate(-10.86 -2.22)" fill="#6178ff"/><path d="M167.51,162.47l-4.76-.27-1,2.64-3.71-.21,6.09-14.09,3.27.18,4.5,14.69-3.73-.21Zm-3.78-2.9,3.1.17-1.27-5.08Z" transform="translate(-10.86 -2.22)" fill="#fff"/></g></svg>
